X:1066
T:Come Over The Mountain 
C:Joe Buchanan's Scottish Tome - Page 648.0
I:648 0
C:Irish trad. country waltz
Z:Carl Allison
R:Waltz
L:1/8
M:3/4
K:G
G>E | D2>E2 G>A | B2>A2 A>E | A2>G2 A>d | F2 G2 A2 |
g>f d>c d>e | d2 c2 BA | G B2 A>G | F2>A2 ((3GFE) |
D2 G2 G>A | B2>A2 G>E | A2>G2 A>d | F2 G2 A2 |
g>f d>^c d>e | d2>c2 B>A | G2>B2 A>F | G6 |]
g>f | g2 d4 | g2 a3 g | f2 d2 e2 |[=fA]4 g^f |
g3 d2 e | d2 c2 B>A | G2>B2 A>G|F2>A2 ((3GFE)|
D2 G>F G>A | B2>A2 G>E | A2>G2 A>d | F2 G2 A2 |
g>f d>^c d>e | d2 c2 B>A | G2>B2 A>F | G6 :|

